X: 11
T: Concertina, The
Z: UPipes & harp
S: https://thesession.org/tunes/18#setting49627
R: reel
M: 4/4
L: 1/8
K: Dmaj
|:FG|A2FA BAFG|A2 FA BAFA|B2 cA B2 cA|B2 cA BAFG|
A2FA BAFG|A2 FA BAFE|FABc dcdB|AFEF D2:|
|:FG|Adcd Adcd|AddA BAFA|B2 cA B2 cA|B2 cA BAFG|
Adcd Adcd|AddA BAFE|FABc dcdB|AFEF D2:|

